src/pos-icons/folder-clock.svg

<svg height="24" viewBox="0 0 24 24" width="24" xmlns="http://www.w3.org/2000/svg"><path d="m3 4c-1.11 0-2 .89-2 2v12a2 2 0 0 0 2 2h7.26c1.31 1.88 3.45 3 5.74 3a7 7 0 0 0 7-7c0-1.83-.72-3.58-2-4.89v-3.11c0-1.11-.9-2-2-2h-8l-2-2zm13 7a5 5 0 0 1 5 5 5 5 0 0 1 -5 5 5 5 0 0 1 -5-5 5 5 0 0 1 5-5m-1 1v5l3.61 2.16.75-1.22-2.86-1.69v-4.25z"/></svg>

<?xml version="1.0" encoding="UTF-8"?><!DOCTYPE svg PUBLIC "-//W3C//DTD SVG 1.1//EN" "http://www.w3.org/Graphics/SVG/1.1/DTD/svg11.dtd"><svg xmlns="http://www.w3.org/2000/svg" xmlns:xlink="http://www.w3.org/1999/xlink" version="1.1" id="mdi-folder-clock" width="24" height="24" viewBox="0 0 24 24"><path d="M3,4C1.89,4 1,4.89 1,6V18A2,2 0 0,0 3,20H10.26C11.57,21.88 13.71,23 16,23A7,7 0 0,0 23,16C23,14.17 22.28,12.42 21,11.11V8C21,6.89 20.1,6 19,6H11L9,4H3M16,11A5,5 0 0,1 21,16A5,5 0 0,1 16,21A5,5 0 0,1 11,16A5,5 0 0,1 16,11M15,12V17L18.61,19.16L19.36,17.94L16.5,16.25V12H15Z" /></svg>
